status/48/battery_empty.svg

<?xml version="1.0" encoding="UTF-8" standalone="no"?>
<!-- Created with Inkscape (http://www.inkscape.org/) -->

<svg
   xmlns:svg="http://www.w3.org/2000/svg"
   xmlns="http://www.w3.org/2000/svg"
   xmlns:xlink="http://www.w3.org/1999/xlink"
   version="1.1"
   width="48"
   height="48"
   id="svg4172">
  <defs
     id="defs4174">
    <linearGradient
       id="linearGradient4151-767-958">
      <stop
         id="stop4470"
         style="stop-color:#979797;stop-opacity:1"
         offset="0" />
      <stop
         id="stop4472"
         style="stop-color:#d5d5d5;stop-opacity:1"
         offset="1" />
    </linearGradient>
    <linearGradient
       x1="10.014043"
       y1="26.841442"
       x2="17.354513"
       y2="26.841442"
       id="linearGradient2565"
       xlink:href="#linearGradient4151-767-958"
       gradientUnits="userSpaceOnUse"
       gradientTransform="matrix(1.0094925,0,0,1.1341181,-0.2931655,-9.7946981)"
       spreadMethod="reflect" />
    <linearGradient
       id="linearGradient6924-448-120">
      <stop
         id="stop4458"
         style="stop-color:#f2f2f2;stop-opacity:1"
         offset="0" />
      <stop
         id="stop4460"
         style="stop-color:#f2f2f2;stop-opacity:0"
         offset="1" />
    </linearGradient>
    <linearGradient
       x1="16.07143"
       y1="19.5"
       x2="15.785715"
       y2="30"
       id="linearGradient2594"
       xlink:href="#linearGradient6924-448-120"
       gradientUnits="userSpaceOnUse"
       gradientTransform="matrix(1.0354209,0,0,1.1506849,-1.167754,-7.4383551)" />
    <linearGradient
       x1="24"
       y1="16.525082"
       x2="24"
       y2="13.284962"
       id="linearGradient2598"
       xlink:href="#linearGradient3539-33"
       gradientUnits="userSpaceOnUse" />
    <linearGradient
       x1="19.776941"
       y1="8.1215363"
       x2="19.776941"
       y2="18.184662"
       id="linearGradient2596"
       xlink:href="#linearGradient10033-588-29"
       gradientUnits="userSpaceOnUse" />
    <linearGradient
       id="linearGradient4126-65-434">
      <stop
         id="stop4464"
         style="stop-color:black;stop-opacity:1"
         offset="0" />
      <stop
         id="stop4466"
         style="stop-color:black;stop-opacity:0"
         offset="1" />
    </linearGradient>
    <radialGradient
       cx="23.857143"
       cy="40"
       r="17.142857"
       fx="23.857143"
       fy="40"
       id="radialGradient2579"
       xlink:href="#linearGradient4126-65-434"
       gradientUnits="userSpaceOnUse"
       gradientTransform="matrix(1,0,0,0.5,0,20)" />
    <linearGradient
       id="linearGradient4173-908-339">
      <stop
         id="stop4476"
         style="stop-color:#b2b2b2;stop-opacity:1"
         offset="0" />
      <stop
         id="stop4478"
         style="stop-color:#e6e6e6;stop-opacity:1"
         offset="1" />
    </linearGradient>
    <linearGradient
       x1="21.714285"
       y1="10.285714"
       x2="27.038286"
       y2="10.285714"
       id="linearGradient2589"
       xlink:href="#linearGradient4173-908-339"
       gradientUnits="userSpaceOnUse"
       gradientTransform="matrix(0.9937327,0,0,1.4174272,0.3700224,-9.9139801)" />
    <linearGradient
       id="linearGradient3564-531">
      <stop
         id="stop4452"
         style="stop-color:white;stop-opacity:0.37288135"
         offset="0" />
      <stop
         id="stop4454"
         style="stop-color:#a9a9a9;stop-opacity:0"
         offset="1" />
    </linearGradient>
    <linearGradient
       x1="24"
       y1="16.525082"
       x2="24"
       y2="13.284962"
       id="linearGradient2585"
       xlink:href="#linearGradient3564-531"
       gradientUnits="userSpaceOnUse" />
    <linearGradient
       id="linearGradient10033-588-987">
      <stop
         id="stop4446"
         style="stop-color:#e5e5e5;stop-opacity:1"
         offset="0" />
      <stop
         id="stop4448"
         style="stop-color:#b2b2b2;stop-opacity:1"
         offset="1" />
    </linearGradient>
    <linearGradient
       x1="15.036061"
       y1="11.205624"
       x2="19.776941"
       y2="18.184662"
       id="linearGradient2583"
       xlink:href="#linearGradient10033-588-987"
       gradientUnits="userSpaceOnUse" />
    <linearGradient
       id="linearGradient3539-33">
      <stop
         id="stop4440"
         style="stop-color:white;stop-opacity:1"
         offset="0" />
      <stop
         id="stop4442"
         style="stop-color:white;stop-opacity:0"
         offset="1" />
    </linearGradient>
    <linearGradient
       x1="24"
       y1="16.525082"
       x2="24"
       y2="13.284962"
       id="linearGradient4161"
       xlink:href="#linearGradient3539-33"
       gradientUnits="userSpaceOnUse" />
    <linearGradient
       id="linearGradient10033-588-29">
      <stop
         id="stop4434"
         style="stop-color:black;stop-opacity:0.5411765"
         offset="0" />
      <stop
         id="stop4436"
         style="stop-color:white;stop-opacity:0.16949153"
         offset="1" />
    </linearGradient>
    <linearGradient
       x1="19.776941"
       y1="8.1215363"
       x2="19.776941"
       y2="18.184662"
       id="linearGradient4159"
       xlink:href="#linearGradient10033-588-29"
       gradientUnits="userSpaceOnUse" />
  </defs>
  <g
     id="layer1">
    <path
       d="m 23.871553,1.4862933 c -5.241891,0 -14.3852592,1.406792 -14.3852592,5.9079871 0,0.2805638 0,33.7616066 0,34.0537996 0,3.909876 6.4512262,6.065626 14.3852592,6.065626 7.934033,0 14.642153,-2.155753 14.642153,-6.065626 0,-0.231428 0,-33.8223713 0,-34.0537996 0,-4.5017139 -9.441013,-5.9079871 -14.642153,-5.9079871 z"
       id="path9129"
       style="opacity:0.3;fill:url(#linearGradient2565);fill-opacity:1;fill-rule:nonzero;stroke:white;stroke-width:0.97258759;stroke-linecap:butt;stroke-linejoin:round;stroke-miterlimit:10;stroke-opacity:0.23469388;stroke-dasharray:none;stroke-dashoffset:0;marker:none;visibility:visible;display:block;overflow:visible" />
    <path
       d="M 13,12.205479 13,31.520549 18,33 18,13.767123 c 0,0 2.422624,-0.01581 5,-0.801597 C 17.599509,12.697333 11.698443,11.122312 10,9 c 1.467086,2.407436 3,3.205479 3,3.205479 z"
       id="path9135"
       style="opacity:0.4;fill:url(#linearGradient2594);fill-opacity:1;fill-rule:nonzero;stroke:none;stroke-width:0.97799999;marker:none;visibility:visible;display:block;overflow:visible" />
    <path
       d="m 36.857142,14.071428 a 12.857142,5.5 0 1 1 -25.714284,0 12.857142,5.5 0 1 1 25.714284,0 z"
       transform="matrix(1.0519204,0,0,0.8226711,-1.2460907,-4.5761575)"
       id="path9137"
       style="opacity:0.3;fill:url(#linearGradient2596);fill-opacity:1;fill-rule:nonzero;stroke:url(#linearGradient2598);stroke-width:1.02188385;stroke-linecap:butt;stroke-linejoin:round;stroke-miterlimit:10;stroke-opacity:1;stroke-dasharray:none;stroke-dashoffset:0;marker:none;visibility:visible;display:block;overflow:visible" />
    <path
       d="M 41,40 A 17.142857,8.5714283 0 1 1 6.7142868,40 17.142857,8.5714283 0 1 1 41,40 z"
       transform="matrix(0.361547,0,0,0.3705221,15.452966,-9.3113675)"
       id="path9139"
       style="opacity:0.2;fill:url(#radialGradient2579);fill-opacity:1;fill-rule:nonzero;stroke:none;stroke-width:2.47287893;marker:none;visibility:visible;display:block;overflow:visible" />
    <path
       d="m 24.109745,0.89018843 c -2.343303,-0.0427626 -4.602261,0.61013747 -4.602261,1.51108407 0,0.089355 0,3.0250184 0,3.1180775 0,1.2452329 2.612018,1.9731655 4.602261,1.9731655 1.99024,0 4.382771,-0.7279326 4.38277,-1.9731655 0,-0.073706 0,-2.4586075 0,-3.1180775 0,-0.6594702 -2.01741,-1.46791904 -4.38277,-1.51108407 z"
       id="path9141"
       style="opacity:0.3;fill:url(#linearGradient2589);fill-opacity:1;fill-rule:nonzero;stroke:#919191;stroke-width:1.01496899;stroke-linecap:butt;stroke-linejoin:round;stroke-miterlimit:10;stroke-opacity:1;stroke-dasharray:none;stroke-dashoffset:0;marker:none;visibility:visible;display:block;overflow:visible" />
    <path
       d="m 36.857142,14.071428 a 12.857142,5.5 0 1 1 -25.714284,0 12.857142,5.5 0 1 1 25.714284,0 z"
       transform="matrix(0.3494179,0,0,0.2681896,15.613971,-1.7912834)"
       id="path9143"
       style="opacity:0.4;fill:url(#linearGradient2583);fill-opacity:1;fill-rule:nonzero;stroke:url(#linearGradient2585);stroke-width:3.31557727;stroke-linecap:butt;stroke-linejoin:round;stroke-miterlimit:10;stroke-opacity:1;stroke-dasharray:none;stroke-dashoffset:0;marker:none;visibility:visible;display:block;overflow:visible" />
    <path
       d="m 36.857142,14.071428 a 12.857142,5.5 0 1 1 -25.714284,0 12.857142,5.5 0 1 1 25.714284,0 z"
       transform="matrix(1.0519204,0,0,0.8226711,-1.2460907,30.423842)"
       id="path4157"
       style="opacity:0.3;fill:url(#linearGradient4159);fill-opacity:1;fill-rule:nonzero;stroke:url(#linearGradient4161);stroke-width:1.02188385;stroke-linecap:butt;stroke-linejoin:round;stroke-miterlimit:10;stroke-opacity:1;stroke-dasharray:none;stroke-dashoffset:0;marker:none;visibility:visible;display:block;overflow:visible" />
  </g>
</svg>

<?xml version="1.0" encoding="UTF-8" standalone="no"?>
<!-- Created with Inkscape (http://www.inkscape.org/) -->
<svg
   xmlns:dc="http://purl.org/dc/elements/1.1/"
   xmlns:cc="http://creativecommons.org/ns#"
   xmlns:rdf="http://www.w3.org/1999/02/22-rdf-syntax-ns#"
   xmlns:svg="http://www.w3.org/2000/svg"
   xmlns="http://www.w3.org/2000/svg"
   xmlns:xlink="http://www.w3.org/1999/xlink"
   xmlns:sodipodi="http://sodipodi.sourceforge.net/DTD/sodipodi-0.dtd"
   xmlns:inkscape="http://www.inkscape.org/namespaces/inkscape"
   width="48px"
   height="48px"
   id="svg4172"
   sodipodi:version="0.32"
   inkscape:version="0.46"
   sodipodi:docname="battery_empty.svg"
   inkscape:output_extension="org.inkscape.output.svg.inkscape">
  <defs
     id="defs4174">
    <linearGradient
       id="linearGradient4151-767-958"
       inkscape:collect="always">
      <stop
         id="stop4470"
         offset="0"
         style="stop-color:#979797;stop-opacity:1" />
      <stop
         id="stop4472"
         offset="1"
         style="stop-color:#d5d5d5;stop-opacity:1" />
    </linearGradient>
    <linearGradient
       inkscape:collect="always"
       xlink:href="#linearGradient4151-767-958"
       id="linearGradient2565"
       gradientUnits="userSpaceOnUse"
       gradientTransform="matrix(1.0094925,0,0,1.1341181,-0.2931655,-9.7946981)"
       spreadMethod="reflect"
       x1="10.014043"
       y1="26.841442"
       x2="17.354513"
       y2="26.841442" />
    <linearGradient
       inkscape:collect="always"
       id="linearGradient6924-448-120">
      <stop
         style="stop-color:#f2f2f2;stop-opacity:1;"
         offset="0"
         id="stop4458" />
      <stop
         style="stop-color:#f2f2f2;stop-opacity:0;"
         offset="1"
         id="stop4460" />
    </linearGradient>
    <linearGradient
       inkscape:collect="always"
       xlink:href="#linearGradient6924-448-120"
       id="linearGradient2594"
       gradientUnits="userSpaceOnUse"
       gradientTransform="matrix(1.0354209,0,0,1.1506849,-1.167754,-7.4383551)"
       x1="16.07143"
       y1="19.5"
       x2="15.785715"
       y2="30" />
    <linearGradient
       inkscape:collect="always"
       xlink:href="#linearGradient3539-33"
       id="linearGradient2598"
       gradientUnits="userSpaceOnUse"
       x1="24"
       y1="16.525082"
       x2="24"
       y2="13.284962" />
    <linearGradient
       inkscape:collect="always"
       xlink:href="#linearGradient10033-588-29"
       id="linearGradient2596"
       gradientUnits="userSpaceOnUse"
       x1="19.776941"
       y1="8.1215363"
       x2="19.776941"
       y2="18.184662" />
    <linearGradient
       inkscape:collect="always"
       id="linearGradient4126-65-434">
      <stop
         style="stop-color:#000000;stop-opacity:1;"
         offset="0"
         id="stop4464" />
      <stop
         style="stop-color:#000000;stop-opacity:0;"
         offset="1"
         id="stop4466" />
    </linearGradient>
    <radialGradient
       inkscape:collect="always"
       xlink:href="#linearGradient4126-65-434"
       id="radialGradient2579"
       gradientUnits="userSpaceOnUse"
       gradientTransform="matrix(1,0,0,0.5,0,20)"
       cx="23.857143"
       cy="40"
       fx="23.857143"
       fy="40"
       r="17.142857" />
    <linearGradient
       id="linearGradient4173-908-339"
       inkscape:collect="always">
      <stop
         id="stop4476"
         offset="0"
         style="stop-color:#b2b2b2;stop-opacity:1" />
      <stop
         id="stop4478"
         offset="1"
         style="stop-color:#e6e6e6;stop-opacity:1" />
    </linearGradient>
    <linearGradient
       inkscape:collect="always"
       xlink:href="#linearGradient4173-908-339"
       id="linearGradient2589"
       gradientUnits="userSpaceOnUse"
       gradientTransform="matrix(0.9937327,0,0,1.4174272,0.3700224,-9.9139801)"
       x1="21.714285"
       y1="10.285714"
       x2="27.038286"
       y2="10.285714" />
    <linearGradient
       id="linearGradient3564-531">
      <stop
         style="stop-color:#ffffff;stop-opacity:0.37288135;"
         offset="0"
         id="stop4452" />
      <stop
         style="stop-color:#a9a9a9;stop-opacity:0;"
         offset="1"
         id="stop4454" />
    </linearGradient>
    <linearGradient
       inkscape:collect="always"
       xlink:href="#linearGradient3564-531"
       id="linearGradient2585"
       gradientUnits="userSpaceOnUse"
       x1="24"
       y1="16.525082"
       x2="24"
       y2="13.284962" />
    <linearGradient
       id="linearGradient10033-588-987">
      <stop
         style="stop-color:#e5e5e5;stop-opacity:1"
         offset="0"
         id="stop4446" />
      <stop
         style="stop-color:#b2b2b2;stop-opacity:1"
         offset="1"
         id="stop4448" />
    </linearGradient>
    <linearGradient
       inkscape:collect="always"
       xlink:href="#linearGradient10033-588-987"
       id="linearGradient2583"
       gradientUnits="userSpaceOnUse"
       x1="15.036061"
       y1="11.205624"
       x2="19.776941"
       y2="18.184662" />
    <linearGradient
       id="linearGradient3539-33">
      <stop
         id="stop4440"
         offset="0"
         style="stop-color:#ffffff;stop-opacity:1;" />
      <stop
         id="stop4442"
         offset="1"
         style="stop-color:#ffffff;stop-opacity:0;" />
    </linearGradient>
    <linearGradient
       inkscape:collect="always"
       xlink:href="#linearGradient3539-33"
       id="linearGradient4161"
       gradientUnits="userSpaceOnUse"
       x1="24"
       y1="16.525082"
       x2="24"
       y2="13.284962" />
    <linearGradient
       id="linearGradient10033-588-29">
      <stop
         style="stop-color:#000000;stop-opacity:0.5411765;"
         offset="0"
         id="stop4434" />
      <stop
         style="stop-color:#ffffff;stop-opacity:0.16949153;"
         offset="1"
         id="stop4436" />
    </linearGradient>
    <linearGradient
       inkscape:collect="always"
       xlink:href="#linearGradient10033-588-29"
       id="linearGradient4159"
       gradientUnits="userSpaceOnUse"
       x1="19.776941"
       y1="8.1215363"
       x2="19.776941"
       y2="18.184662" />
  </defs>
  <sodipodi:namedview
     id="base"
     pagecolor="#ffffff"
     bordercolor="#666666"
     borderopacity="1.0"
     inkscape:pageopacity="0.0"
     inkscape:pageshadow="2"
     inkscape:zoom="7"
     inkscape:cx="24"
     inkscape:cy="24"
     inkscape:current-layer="layer1"
     showgrid="true"
     inkscape:grid-bbox="true"
     inkscape:document-units="px"
     inkscape:window-width="640"
     inkscape:window-height="679"
     inkscape:window-x="0"
     inkscape:window-y="24" />
  <metadata
     id="metadata4177">
    <rdf:RDF>
      <cc:Work
         rdf:about="">
        <dc:format>image/svg+xml</dc:format>
        <dc:type
           rdf:resource="http://purl.org/dc/dcmitype/StillImage" />
      </cc:Work>
    </rdf:RDF>
  </metadata>
  <g
     id="layer1"
     inkscape:label="Layer 1"
     inkscape:groupmode="layer">
    <path
       style="opacity:0.29999999999999999;fill:url(#linearGradient2565);fill-opacity:1;fill-rule:nonzero;stroke:#ffffff;stroke-width:0.97258758999999995;stroke-linecap:butt;stroke-linejoin:round;marker:none;marker-start:none;marker-mid:none;marker-end:none;stroke-miterlimit:10;stroke-dasharray:none;stroke-dashoffset:0;stroke-opacity:0.23469387999999999;visibility:visible;display:block;overflow:visible"
       d="M 23.871553,1.4862933 C 18.629662,1.4862933 9.4862938,2.8930853 9.4862938,7.3942804 C 9.4862938,7.6748442 9.4862938,41.155887 9.4862938,41.44808 C 9.4862938,45.357956 15.93752,47.513706 23.871553,47.513706 C 31.805586,47.513706 38.513706,45.357953 38.513706,41.44808 C 38.513706,41.216652 38.513706,7.6257087 38.513706,7.3942804 C 38.513706,2.8925665 29.072693,1.4862933 23.871553,1.4862933 z"
       id="path9129"
       sodipodi:nodetypes="csszssz" />
    <path
       style="opacity:0.40000000000000002;fill:url(#linearGradient2594);fill-opacity:1;fill-rule:nonzero;stroke:none;stroke-width:0.97799999000000004;stroke-linecap:butt;stroke-linejoin:round;marker:none;marker-start:none;marker-mid:none;marker-end:none;stroke-miterlimit:10;stroke-dasharray:none;stroke-dashoffset:0;stroke-opacity:1;visibility:visible;display:block;overflow:visible"
       d="M 13,12.205479 L 13,31.520549 L 18,33 L 18,13.767123 C 18,13.767123 20.422624,13.751311 23,12.965526 C 17.599509,12.697333 11.698443,11.122312 10,9 C 11.467086,11.407436 13,12.205479 13,12.205479 z"
       id="path9135"
       sodipodi:nodetypes="ccccccc" />
    <path
       sodipodi:type="arc"
       style="opacity:0.29999999999999999;fill:url(#linearGradient2596);fill-opacity:1;fill-rule:nonzero;stroke:url(#linearGradient2598);stroke-width:1.02188385000000004;stroke-linecap:butt;stroke-linejoin:round;marker:none;marker-start:none;marker-mid:none;marker-end:none;stroke-miterlimit:10;stroke-dasharray:none;stroke-dashoffset:0;stroke-opacity:1;visibility:visible;display:block;overflow:visible"
       id="path9137"
       sodipodi:cx="24"
       sodipodi:cy="14.071428"
       sodipodi:rx="12.857142"
       sodipodi:ry="5.5"
       d="M 36.857142,14.071428 A 12.857142,5.5 0 1 1 11.142858,14.071428 A 12.857142,5.5 0 1 1 36.857142,14.071428 z"
       transform="matrix(1.0519204,0,0,0.8226711,-1.2460907,-4.5761575)" />
    <path
       transform="matrix(0.361547,0,0,0.3705221,15.452966,-9.3113675)"
       d="M 41,40 A 17.142857,8.5714283 0 1 1 6.7142868,40 A 17.142857,8.5714283 0 1 1 41,40 z"
       sodipodi:ry="8.5714283"
       sodipodi:rx="17.142857"
       sodipodi:cy="40"
       sodipodi:cx="23.857143"
       id="path9139"
       style="opacity:0.20000000000000001;fill:url(#radialGradient2579);fill-opacity:1;fill-rule:nonzero;stroke:none;stroke-width:2.47287892999999981;stroke-linecap:butt;stroke-linejoin:round;marker:none;marker-start:none;marker-mid:none;marker-end:none;stroke-miterlimit:10;stroke-dasharray:none;stroke-dashoffset:0;stroke-opacity:1;visibility:visible;display:block;overflow:visible"
       sodipodi:type="arc" />
    <path
       sodipodi:nodetypes="csszszz"
       id="path9141"
       d="M 24.109745,0.89018843 C 21.766442,0.84742585 19.507484,1.5003259 19.507484,2.4012725 C 19.507484,2.4906272 19.507484,5.4262909 19.507484,5.51935 C 19.507484,6.7645829 22.119502,7.4925155 24.109745,7.4925155 C 26.099985,7.4925155 28.492516,6.7645829 28.492515,5.51935 C 28.492515,5.4456438 28.492515,3.0607425 28.492515,2.4012725 C 28.492515,1.7418023 26.475105,0.93335346 24.109745,0.89018843 z"
       style="opacity:0.29999999999999999;fill:url(#linearGradient2589);fill-opacity:1;fill-rule:nonzero;stroke:#919191;stroke-width:1.01496899000000007;stroke-linecap:butt;stroke-linejoin:round;marker:none;marker-start:none;marker-mid:none;marker-end:none;stroke-miterlimit:10;stroke-dasharray:none;stroke-dashoffset:0;stroke-opacity:1;visibility:visible;display:block;overflow:visible" />
    <path
       sodipodi:type="arc"
       style="opacity:0.40000000000000002;fill:url(#linearGradient2583);fill-opacity:1;fill-rule:nonzero;stroke:url(#linearGradient2585);stroke-width:3.31557726999999991;stroke-linecap:butt;stroke-linejoin:round;marker:none;marker-start:none;marker-mid:none;marker-end:none;stroke-miterlimit:10;stroke-dasharray:none;stroke-dashoffset:0;stroke-opacity:1;visibility:visible;display:block;overflow:visible"
       id="path9143"
       sodipodi:cx="24"
       sodipodi:cy="14.071428"
       sodipodi:rx="12.857142"
       sodipodi:ry="5.5"
       d="M 36.857142,14.071428 A 12.857142,5.5 0 1 1 11.142858,14.071428 A 12.857142,5.5 0 1 1 36.857142,14.071428 z"
       transform="matrix(0.3494179,0,0,0.2681896,15.613971,-1.7912834)" />
    <path
       sodipodi:type="arc"
       style="opacity:0.29999999999999999;fill:url(#linearGradient4159);fill-opacity:1;fill-rule:nonzero;stroke:url(#linearGradient4161);stroke-width:1.02188385000000004;stroke-linecap:butt;stroke-linejoin:round;marker:none;marker-start:none;marker-mid:none;marker-end:none;stroke-miterlimit:10;stroke-dasharray:none;stroke-dashoffset:0;stroke-opacity:1;visibility:visible;display:block;overflow:visible"
       id="path4157"
       sodipodi:cx="24"
       sodipodi:cy="14.071428"
       sodipodi:rx="12.857142"
       sodipodi:ry="5.5"
       d="M 36.857142,14.071428 A 12.857142,5.5 0 1 1 11.142858,14.071428 A 12.857142,5.5 0 1 1 36.857142,14.071428 z"
       transform="matrix(1.0519204,0,0,0.8226711,-1.2460907,30.423842)" />
  </g>
</svg>
